src/assets/img/tech/microsoft-edge.svg

<svg xmlns="http://www.w3.org/2000/svg" width="256" height="278"><path fill="#3177BC" d="M87.248 103.767C69.591 114.758 59.5 130.376 59.5 130.376s2.614-32.749 27.748-51.911c9.996-7.622 23.661-14.007 42.042-14.007 6.905 0 21.385 1.201 34.428 9.243 13.042 8.042 18.312 14.776 24.187 24.638 2.535 4.255 4.601 9.723 5.89 14.995 2.413 9.88 2.707 21.696 2.707 21.696v15.565H103.29s-2.277 31.318 40.591 31.318c14.908 0 20.129-2.343 25.033-3.795 7.677-2.273 15.088-7.34 15.088-7.34l.015 31.289s-17.544 10.807-44.049 10.807c-7.464 0-15.33-.626-22.916-3.088-6.629-2.151-20.511-7.951-29.802-21.547-3.288-4.81-6.849-11.209-8.613-17.461-1.907-6.759-1.883-13.326-1.883-16.944 0-13.532 4.623-26.45 12.645-35.79 10.391-12.098 23.524-17.423 23.524-17.423s-4.278 4.988-6.909 11.197-3.352 12.457-3.352 12.457h52.632s3.077-31.451-29.782-31.451c-12.383 0-27.589 4.298-38.264 10.943z"/></svg>

<?xml version="1.0" encoding="UTF-8" standalone="no"?>
<!DOCTYPE svg PUBLIC "-//W3C//DTD SVG 1.1//EN" "http://www.w3.org/Graphics/SVG/1.1/DTD/svg11.dtd">
<svg width="100%" height="100%" viewBox="0 0 256 256" version="1.1" xmlns="http://www.w3.org/2000/svg" xmlns:xlink="http://www.w3.org/1999/xlink" xml:space="preserve" xmlns:serif="http://www.serif.com/" style="fill-rule:evenodd;clip-rule:evenodd;stroke-linejoin:round;stroke-miterlimit:2;">
    <g transform="matrix(1.07805,0,0,1.07805,-9.99159,-21.489)">
        <path d="M87.248,103.767C69.591,114.758 59.5,130.376 59.5,130.376C59.5,130.376 62.114,97.627 87.248,78.465C97.244,70.843 110.909,64.458 129.29,64.458C136.195,64.458 150.675,65.659 163.718,73.701C176.76,81.743 182.03,88.477 187.905,98.339C190.44,102.594 192.506,108.062 193.795,113.334C196.208,123.214 196.502,135.03 196.502,135.03L196.502,150.595L103.29,150.595C103.29,150.595 101.013,181.913 143.881,181.913C158.789,181.913 164.01,179.57 168.914,178.118C176.591,175.845 184.002,170.778 184.002,170.778L184.017,202.067C184.017,202.067 166.473,212.874 139.968,212.874C132.504,212.874 124.638,212.248 117.052,209.786C110.423,207.635 96.541,201.835 87.25,188.239C83.962,183.429 80.401,177.03 78.637,170.778C76.73,164.019 76.754,157.452 76.754,153.834C76.754,140.302 81.377,127.384 89.399,118.044C99.79,105.946 112.923,100.621 112.923,100.621C112.923,100.621 108.645,105.609 106.014,111.818C103.383,118.027 102.662,124.275 102.662,124.275L155.294,124.275C155.294,124.275 158.371,92.824 125.512,92.824C113.129,92.824 97.923,97.122 87.248,103.767Z" style="fill:rgb(49,119,188);fill-rule:nonzero;"/>
    </g>
</svg>
